Papirus/48x48/devices/phone.svg

<?xml version="1.0" encoding="UTF-8" standalone="no"?>
<svg xmlns="http://www.w3.org/2000/svg" height="48" width="48" version="1">
 <rect fill-opacity="0" ry="10" height="60" width="20" y="-421.36" x="869.19"/>
 <rect transform="matrix(0,-1,-1,0,0,0)" rx="2" ry="2" height="32" width="40" y="-40" x="-44" fill="#6d6d6d"/>
 <path opacity=".1" fill="#fff" d="m10 4c-1.108 0-2 0.892-2 2v1c0-1.108 0.892-2 2-2h28c1.108 0 2 0.892 2 2v-1c0-1.108-0.892-2-2-2h-28z"/>
 <path fill="#4d4d4d" d="m13 8h22c1.108 0 2 1.0292 2 2.3077v25.385c0 1.278-0.892 2.307-2 2.307h-22c-1.108 0-2-1.0292-2-2.3077v-25.384c0-1.2788 0.892-2.308 2-2.308z"/>
 <path opacity=".2" d="m8 42v1c0 1.108 0.892 2 2 2h28c1.108 0 2-0.892 2-2v-1c0 1.108-0.892 2-2 2h-28c-1.108 0-2-0.892-2-2z"/>
 <rect rx=".714" ry="1" height="2" width="10" y="5" x="19" fill="#4d4d4d"/>
 <path d="m 28.5625,10.039061 c -0.192985,-0.02407 -0.390266,0.06813 -0.494141,0.248048 l -1.511718,2.619141 c -0.793809,-0.264769 -1.651111,-0.417969 -2.552735,-0.417969 -0.902957,0 -1.764285,0.152454 -2.558594,0.417969 l -1.511718,-2.619141 c -0.103875,-0.179917 -0.30077,-0.270323 -0.494141,-0.246094 -0.06446,0.0081 -0.129481,0.02787 -0.189453,0.0625 -0.239889,0.138501 -0.320141,0.443705 -0.181641,0.683594 l 1.44336,2.501953 c -1.960829,0.957988 -3.334991,2.693001 -3.513672,4.710937 h 14 c -0.178676,-2.017871 -1.547304,-3.756374 -3.507813,-4.710937 l 1.44336,-2.501953 c 0.1385,-0.239889 0.0563,-0.545093 -0.183594,-0.683594 -0.05997,-0.03463 -0.123172,-0.05643 -0.1875,-0.06445 z m -7.513672,4.541016 c 0.43,0 0.773438,0.341766 0.773438,0.759766 0,0.418 -0.348438,0.761719 -0.773438,0.761718 -0.43,0 -0.777344,-0.339718 -0.777344,-0.761718 0,-0.418 0.348344,-0.759766 0.777344,-0.759766 z m 6,0 c 0.426,0 0.773438,0.341766 0.773438,0.759766 0,0.418 -0.348438,0.761719 -0.773438,0.761718 -0.43,0 -0.777344,-0.339718 -0.777344,-0.761718 0,-0.418 0.348344,-0.759766 0.777344,-0.759766 z M 14.566406,18.999999 C 13.703406,18.999999 13,19.758405 13,20.691405 v 6.617188 c 0,0.934 0.703406,1.695312 1.566406,1.695312 0.863,0 1.433594,-0.762312 1.433594,-1.695312 v -6.617188 c 0,-0.934 -0.569594,-1.691406 -1.433594,-1.691406 z m 2.4375,0 v 11.59375 c 0,0.688 0.32,1.40625 1,1.40625 h 2 V 35.375 c 0,0.898 0.616282,1.625 1.488282,1.625 0.867,0 1.511718,-0.727 1.511718,-1.625 v -3.375001 h 2 V 35.375 c 0,0.898 0.741282,1.625 1.613282,1.625 0.867,0 1.390624,-0.727 1.390624,-1.625 v -3.375001 h 2 c 0.676,0 1,-0.7193 1,-1.40625 v -11.59375 z m 16.433594,0 c -0.863,0 -1.433594,0.758406 -1.433594,1.691406 v 6.617188 c 0,0.934 0.569594,1.695312 1.433594,1.695312 0.867,0 1.5625,-0.762312 1.5625,-1.695312 v -6.617188 c 0,-0.934 -0.6985,-1.691406 -1.5625,-1.691406 z" style="opacity:0.2"/>
 <path style="fill:#a4ca39" d="m 28.5625,9.039061 c -0.192985,-0.02407 -0.390266,0.06813 -0.494141,0.248048 l -1.511718,2.619141 c -0.793809,-0.264769 -1.651111,-0.417969 -2.552735,-0.417969 -0.902957,0 -1.764285,0.152454 -2.558594,0.417969 L 19.933594,9.287109 C 19.829719,9.107192 19.632824,9.016786 19.439453,9.041015 19.374993,9.049115 19.309972,9.068885 19.25,9.103515 19.010111,9.242016 18.929859,9.54722 19.068359,9.787109 l 1.44336,2.501953 c -1.960829,0.957988 -3.334991,2.693001 -3.513672,4.710937 h 14 c -0.178676,-2.017871 -1.547304,-3.756374 -3.507813,-4.710937 l 1.44336,-2.501953 C 29.072094,9.54722 28.989894,9.242016 28.75,9.103515 28.69003,9.068885 28.626828,9.047085 28.5625,9.039065 Z m -7.513672,4.541016 c 0.43,0 0.773438,0.341766 0.773438,0.759766 0,0.418 -0.348438,0.761719 -0.773438,0.761718 -0.43,0 -0.777344,-0.339718 -0.777344,-0.761718 0,-0.418 0.348344,-0.759766 0.777344,-0.759766 z m 6,0 c 0.426,0 0.773438,0.341766 0.773438,0.759766 0,0.418 -0.348438,0.761719 -0.773438,0.761718 -0.43,0 -0.777344,-0.339718 -0.777344,-0.761718 0,-0.418 0.348344,-0.759766 0.777344,-0.759766 z M 14.566406,17.999999 C 13.703406,17.999999 13,18.758405 13,19.691405 v 6.617188 c 0,0.934 0.703406,1.695312 1.566406,1.695312 0.863,0 1.433594,-0.762312 1.433594,-1.695312 v -6.617188 c 0,-0.934 -0.569594,-1.691406 -1.433594,-1.691406 z m 2.4375,0 v 11.59375 c 0,0.688 0.32,1.40625 1,1.40625 h 2 V 34.375 c 0,0.898 0.616282,1.625 1.488282,1.625 0.867,0 1.511718,-0.727 1.511718,-1.625 v -3.375001 h 2 V 34.375 c 0,0.898 0.741282,1.625 1.613282,1.625 0.867,0 1.390624,-0.727 1.390624,-1.625 v -3.375001 h 2 c 0.676,0 1,-0.7193 1,-1.40625 v -11.59375 z m 16.433594,0 c -0.863,0 -1.433594,0.758406 -1.433594,1.691406 v 6.617188 c 0,0.934 0.569594,1.695312 1.433594,1.695312 0.867,0 1.5625,-0.762312 1.5625,-1.695312 v -6.617188 c 0,-0.934 -0.6985,-1.691406 -1.5625,-1.691406 z"/>
</svg>

<svg xmlns="http://www.w3.org/2000/svg" width="48" height="48" version="1">
 <rect style="opacity:0.2" width="40" height="32" x="-45" y="-40" rx="2" ry="2" transform="matrix(0,-1,-1,0,0,0)"/>
 <rect style="fill:#8e8e8e" width="40" height="32" x="-44" y="-40" rx="2" ry="2" transform="matrix(0,-1,-1,0,0,0)"/>
 <rect style="opacity:0.5" width="10" height="2" x="19" y="5" rx="1" ry="1"/>
 <rect style="opacity:0.5" width="26" height="30" x="11" y="8" rx="2" ry="2"/>
 <circle style="opacity:0.5" cx="24" cy="41" r="2"/>
 <path style="opacity:0.2" d="M 28.562,10.039 C 28.37,10.015 28.172,10.107 28.068,10.287 L 26.557,12.906 C 25.763,12.641 24.906,12.488 24.004,12.488 23.101,12.488 22.24,12.641 21.445,12.906 L 19.934,10.287 C 19.83,10.107 19.633,10.017 19.439,10.041 19.375,10.049 19.31,10.069 19.25,10.104 19.01,10.242 18.93,10.547 19.068,10.787 L 20.512,13.289 C 18.551,14.247 17.177,15.982 16.998,18 H 30.998 C 30.819,15.982 29.451,14.244 27.49,13.289 L 28.934,10.787 C 29.072,10.547 28.99,10.242 28.75,10.104 28.69,10.069 28.627,10.047 28.562,10.039 Z M 21.049,14.58 C 21.479,14.58 21.822,14.922 21.822,15.34 21.822,15.758 21.474,16.102 21.049,16.102 20.619,16.102 20.271,15.762 20.271,15.34 20.271,14.922 20.62,14.58 21.049,14.58 Z M 27.049,14.58 C 27.475,14.58 27.822,14.922 27.822,15.34 27.822,15.758 27.474,16.102 27.049,16.102 26.619,16.102 26.271,15.762 26.271,15.34 26.271,14.922 26.62,14.58 27.049,14.58 Z M 14.566,19 C 13.703,19 13,19.758 13,20.691 V 27.309 C 13,28.243 13.703,29.004 14.566,29.004 15.429,29.004 16,28.242 16,27.309 V 20.691 C 16,19.757 15.43,19 14.566,19 Z M 17.004,19 V 30.594 C 17.004,31.282 17.324,32 18.004,32 H 20.004 V 35.375 C 20.004,36.273 20.62,37 21.492,37 22.359,37 23.004,36.273 23.004,35.375 V 32 H 25.004 V 35.375 C 25.004,36.273 25.745,37 26.617,37 27.484,37 28.008,36.273 28.008,35.375 V 32 H 30.008 C 30.684,32 31.008,31.281 31.008,30.594 V 19 Z M 33.438,19 C 32.575,19 32.004,19.758 32.004,20.691 V 27.309 C 32.004,28.243 32.574,29.004 33.438,29.004 34.304,29.004 35,28.242 35,27.309 V 20.691 C 35,19.757 34.301,19 33.438,19 Z"/>
 <path style="fill:#a4ca39" d="m 28.5625,9.039061 c -0.192985,-0.02407 -0.390266,0.06813 -0.494141,0.248048 l -1.511718,2.619141 c -0.793809,-0.264769 -1.651111,-0.417969 -2.552735,-0.417969 -0.902957,0 -1.764285,0.152454 -2.558594,0.417969 L 19.933594,9.287109 C 19.829719,9.107192 19.632824,9.016786 19.439453,9.041015 19.374993,9.049115 19.309972,9.068885 19.25,9.103515 19.010111,9.242016 18.929859,9.54722 19.068359,9.787109 l 1.44336,2.501953 c -1.960829,0.957988 -3.334991,2.693001 -3.513672,4.710937 h 14 c -0.178676,-2.017871 -1.547304,-3.756374 -3.507813,-4.710937 l 1.44336,-2.501953 C 29.072094,9.54722 28.989894,9.242016 28.75,9.103515 28.69003,9.068885 28.626828,9.047085 28.5625,9.039065 Z m -7.513672,4.541016 c 0.43,0 0.773438,0.341766 0.773438,0.759766 0,0.418 -0.348438,0.761719 -0.773438,0.761718 -0.43,0 -0.777344,-0.339718 -0.777344,-0.761718 0,-0.418 0.348344,-0.759766 0.777344,-0.759766 z m 6,0 c 0.426,0 0.773438,0.341766 0.773438,0.759766 0,0.418 -0.348438,0.761719 -0.773438,0.761718 -0.43,0 -0.777344,-0.339718 -0.777344,-0.761718 0,-0.418 0.348344,-0.759766 0.777344,-0.759766 z M 14.566406,17.999999 C 13.703406,17.999999 13,18.758405 13,19.691405 v 6.617188 c 0,0.934 0.703406,1.695312 1.566406,1.695312 0.863,0 1.433594,-0.762312 1.433594,-1.695312 v -6.617188 c 0,-0.934 -0.569594,-1.691406 -1.433594,-1.691406 z m 2.4375,0 v 11.59375 c 0,0.688 0.32,1.40625 1,1.40625 h 2 V 34.375 c 0,0.898 0.616282,1.625 1.488282,1.625 0.867,0 1.511718,-0.727 1.511718,-1.625 v -3.375001 h 2 V 34.375 c 0,0.898 0.741282,1.625 1.613282,1.625 0.867,0 1.390624,-0.727 1.390624,-1.625 v -3.375001 h 2 c 0.676,0 1,-0.7193 1,-1.40625 v -11.59375 z m 16.433594,0 c -0.863,0 -1.433594,0.758406 -1.433594,1.691406 v 6.617188 c 0,0.934 0.569594,1.695312 1.433594,1.695312 0.867,0 1.5625,-0.762312 1.5625,-1.695312 v -6.617188 c 0,-0.934 -0.6985,-1.691406 -1.5625,-1.691406 z"/>
 <path style="fill:#ffffff;opacity:.2" d="m10 4c-1.108 0-2 0.892-2 2v1c0-1.108 0.892-2 2-2h28c1.108 0 2 0.892 2 2v-1c0-1.108-0.892-2-2-2h-28z"/>
</svg>
